applications/blender.svg

<?xml version="1.0" encoding="UTF-8" standalone="no"?>
<!-- Created with Inkscape (http://www.inkscape.org/) -->

<svg
   xmlns:dc="http://purl.org/dc/elements/1.1/"
   xmlns:cc="http://creativecommons.org/ns#"
   xmlns:rdf="http://www.w3.org/1999/02/22-rdf-syntax-ns#"
   xmlns:svg="http://www.w3.org/2000/svg"
   xmlns="http://www.w3.org/2000/svg"
   xmlns:sodipodi="http://sodipodi.sourceforge.net/DTD/sodipodi-0.dtd"
   xmlns:inkscape="http://www.inkscape.org/namespaces/inkscape"
   width="48"
   height="48"
   id="svg4152"
   version="1.1"
   inkscape:version="0.92.1 r"
   viewBox="0 0 48 48"
   sodipodi:docname="blender.svg">
  <defs
     id="defs4154">
    <filter
       style="color-interpolation-filters:sRGB;"
       inkscape:label="Drop Shadow"
       id="filter4591">
      <feFlood
         flood-opacity="0.298039"
         flood-color="rgb(0,0,0)"
         result="flood"
         id="feFlood4581" />
      <feComposite
         in="flood"
         in2="SourceGraphic"
         operator="in"
         result="composite1"
         id="feComposite4583" />
      <feGaussianBlur
         in="composite1"
         stdDeviation="0.8"
         result="blur"
         id="feGaussianBlur4585" />
      <feOffset
         dx="0"
         dy="0.4"
         result="offset"
         id="feOffset4587" />
      <feComposite
         in="SourceGraphic"
         in2="offset"
         operator="over"
         result="composite2"
         id="feComposite4589" />
    </filter>
  </defs>
  <sodipodi:namedview
     id="base"
     pagecolor="#ededed"
     bordercolor="#000000"
     borderopacity="0.49803922"
     inkscape:pageopacity="0"
     inkscape:pageshadow="2"
     inkscape:zoom="11.098901"
     inkscape:cx="23.618959"
     inkscape:cy="25.020687"
     inkscape:current-layer="layer1"
     showgrid="true"
     inkscape:grid-bbox="true"
     inkscape:document-units="px"
     inkscape:showpageshadow="false"
     borderlayer="true"
     inkscape:window-width="1920"
     inkscape:window-height="1012"
     inkscape:window-x="0"
     inkscape:window-y="32"
     inkscape:window-maximized="1"
     showguides="false"
     inkscape:snap-center="true">
    <inkscape:grid
       type="xygrid"
       id="grid4700"
       color="#000000"
       opacity="0.0627451"
       empcolor="#000000"
       empopacity="0.1254902"
       empspacing="4"
       spacingx="2"
       spacingy="2" />
  </sodipodi:namedview>
  <metadata
     id="metadata4157">
    <rdf:RDF>
      <cc:Work
         rdf:about="">
        <dc:format>image/svg+xml</dc:format>
        <dc:type
           rdf:resource="http://purl.org/dc/dcmitype/StillImage" />
        <dc:title />
      </cc:Work>
    </rdf:RDF>
  </metadata>
  <g
     id="layer1"
     inkscape:label="Layer 1"
     inkscape:groupmode="layer"
     transform="translate(0,32)">
    <path
       style="color:#000000;clip-rule:nonzero;display:inline;overflow:visible;visibility:visible;opacity:1;isolation:auto;mix-blend-mode:normal;color-interpolation:sRGB;color-interpolation-filters:linearRGB;solid-color:#000000;solid-opacity:1;fill:#ff9800;fill-opacity:1;fill-rule:evenodd;stroke:none;stroke-width:2;stroke-linecap:round;stroke-linejoin:round;stroke-miterlimit:4;stroke-dasharray:none;stroke-dashoffset:0;stroke-opacity:1;color-rendering:auto;image-rendering:auto;shape-rendering:auto;text-rendering:auto;enable-background:accumulate;filter:url(#filter4591)"
       d="M 25.443359 2.2304688 A 2.0002 2.0002 0 0 0 24.050781 5.6660156 L 30.457031 12.072266 A 17 17 0 0 0 29.224609 12.011719 A 2.0002 2.0002 0 0 0 29 12 L 9 12 A 2.0002 2.0002 0 1 0 9 16 L 18.072266 16 A 17 17 0 0 0 17.099609 16.865234 A 2.0002 2.0002 0 0 0 16.978516 16.978516 L 2.8378906 31.121094 A 2.0002 2.0002 0 1 0 5.6660156 33.949219 L 12.072266 27.542969 A 17 17 0 0 0 12 29 A 17 17 0 0 0 29 46 A 17 17 0 0 0 46 29 A 17 17 0 0 0 41.142578 17.105469 A 2.0002 2.0002 0 0 0 41.021484 16.978516 L 26.878906 2.8378906 A 2.0002 2.0002 0 0 0 25.443359 2.2304688 z "
       transform="translate(0,-32)"
       id="path4165" />
    <circle
       style="color:#000000;clip-rule:nonzero;display:inline;overflow:visible;visibility:visible;opacity:1;isolation:auto;mix-blend-mode:normal;color-interpolation:sRGB;color-interpolation-filters:linearRGB;solid-color:#000000;solid-opacity:1;fill:#ffffff;fill-opacity:1;fill-rule:evenodd;stroke:none;stroke-width:2;stroke-linecap:round;stroke-linejoin:round;stroke-miterlimit:4;stroke-dasharray:none;stroke-dashoffset:0;stroke-opacity:1;color-rendering:auto;image-rendering:auto;shape-rendering:auto;text-rendering:auto;enable-background:accumulate"
       id="path4190-3"
       cx="29"
       cy="-3"
       r="11" />
    <circle
       style="color:#000000;clip-rule:nonzero;display:inline;overflow:visible;visibility:visible;opacity:1;isolation:auto;mix-blend-mode:normal;color-interpolation:sRGB;color-interpolation-filters:linearRGB;solid-color:#000000;solid-opacity:1;fill:#3f51b5;fill-opacity:1;fill-rule:evenodd;stroke:none;stroke-width:2;stroke-linecap:round;stroke-linejoin:round;stroke-miterlimit:4;stroke-dasharray:none;stroke-dashoffset:0;stroke-opacity:1;color-rendering:auto;image-rendering:auto;shape-rendering:auto;text-rendering:auto;enable-background:accumulate"
       id="path4190"
       cx="29"
       cy="-3"
       r="7" />
  </g>
</svg>

<svg 
    xmlns="http://www.w3.org/2000/svg" width="48" height="48">
    <defs>
        <filter id="a">
            <feGaussianBlur in="SourceAlpha" stdDeviation=".8"/>
            <feOffset dy=".4"/>
            <feComponentTransfer>
                <feFuncA slope=".3" type="linear"/>
            </feComponentTransfer>
            <feMerge>
                <feMergeNode/>
                <feMergeNode in="SourceGraphic"/>
            </feMerge>
        </filter>
    </defs>
    <g fill-rule="evenodd" transform="translate(0 32)">
        <path fill="#ff9800" d="M25.443 2.23a2 2 0 0 0-1.392 3.436l6.406 6.406a17 17 0 0 0-1.232-.06A2 2 0 0 0 29 12H9a2 2 0 1 0 0 4h9.072a17 17 0 0 0-.972.865 2 2 0 0 0-.121.114L2.838 31.12a2 2 0 1 0 2.828 2.828l6.406-6.406A17 17 0 0 0 12 29a17 17 0 0 0 17 17 17 17 0 0 0 17-17 17 17 0 0 0-4.857-11.895 2 2 0 0 0-.122-.126L26.88 2.838a2 2 0 0 0-1.436-.608z" filter="url(#a)" transform="translate(0 -32)"/>
        <circle fill="#fff" cx="29" cy="-3" r="11"/>
        <circle fill="#3f51b5" cx="29" cy="-3" r="7"/>
    </g>
</svg>
